X: 1
T: Reel For Carl
M: 4/4
L: 1/8
R: reel
K: Emaj
c|AF F/F/F &quot;tr&quot;F2 CA,| CFAB &quot;tr&quot;cAec| BG G/G/G AGFE|EGBe &quot;tr&quot;gfed|
cF F/F/F &quot;tr&quot;F2 CA,| CFAB &quot;tr&quot;cAec| BGEF GBeg|bgeg f/f/f f:|
g|fc c/c/c fcfg| afce fcfd|eB B/B/B gefd|eBef gabg|
fc c/c/c fcfg| afce fcfd|ecBG EFGB| ecBG F/F/F F:|
